icons/desktop/16/svg/routed-slash-16.svg

<svg width="16" height="16" viewBox="0 0 16 16" fill="none" xmlns="http://www.w3.org/2000/svg">
<g clip-path="url(#clip0_18970_1050)">
<path d="M0.219731 0.219548C0.512593 -0.0731826 0.987416 -0.0731826 1.28028 0.219548L2.67676 1.61603L2.68555 1.60822L5.07813 3.99982H5.06055L10.1211 9.06037C10.1241 9.05784 10.1278 9.05605 10.1309 9.05353L11.1914 10.1121C11.1882 10.115 11.1839 10.1171 11.1807 10.1199L15.7803 14.7195C16.0731 15.0124 16.073 15.4872 15.7803 15.7801C15.4874 16.073 15.0126 16.073 14.7197 15.7801L9.93555 10.9959C9.1944 11.5632 8.75 12.447 8.75 13.4002V15.2498C8.75 15.6638 8.414 15.9998 8 15.9998C7.586 15.9998 7.25 15.6638 7.25 15.2498V13.4002C7.25 12.0417 7.87661 10.8092 8.88575 9.94611L4.75 5.81037V5.95099H3.25V4.31037L2.93946 3.99982H1.50098C1.05498 3.99982 0.832465 3.46228 1.14747 3.14728L1.61622 2.67658L0.219731 1.28009C-0.0730402 0.987192 -0.0731216 0.5124 0.219731 0.219548Z" fill="black"/>
<path d="M4.79981 7.26935C4.88984 7.79019 5.11986 8.29012 5.46973 8.70002C5.71968 8.98996 6.01969 9.22924 6.34961 9.39924C6.56961 9.51924 6.77043 9.65007 6.94043 9.78107C6.97008 9.80008 6.97012 9.83049 6.9502 9.85041L6.11036 10.9695C6.10039 10.9795 6.09005 10.991 6.08008 10.991H6.07032C6.06037 10.991 6.04999 10.9911 6.04004 10.9803C5.92017 10.8904 5.79023 10.8003 5.65039 10.7303C5.15048 10.4603 4.70981 10.1104 4.33985 9.68049C4.33874 9.68045 4.33008 9.67911 4.33008 9.66974C3.79919 9.04583 3.44457 8.2872 3.31055 7.47834L4.79297 7.2215L4.79981 7.26935Z" fill="black"/>
<path d="M11.6475 0.648259C11.8424 0.453419 12.1586 0.453417 12.3535 0.648259L14.8525 3.14728C15.1675 3.46228 14.945 3.99981 14.5 3.99982H12.75V6.7342C12.75 7.62114 12.4777 8.45193 12.0117 9.16388L10.917 8.06916C11.121 7.65921 11.25 7.20915 11.25 6.73322V3.99982H9.50098C9.05599 3.99981 8.83344 3.46228 9.14844 3.14728L11.6475 0.648259Z" fill="black"/>
<path d="M3.64649 0.647282C3.84146 0.452443 4.15757 0.45244 4.35254 0.647282L6.85157 3.14728C7.09357 3.38928 7.01465 3.75779 6.76465 3.91779L3.57032 0.723454L3.64649 0.647282Z" fill="black"/>
</g>
<defs>
<clipPath id="clip0_18970_1050">
<rect width="16" height="16" fill="white"/>
</clipPath>
</defs>
</svg>

<!-- This Source Code Form is subject to the terms of the Mozilla Public
   - License, v. 2.0. If a copy of the MPL was not distributed with this
   - file, You can obtain one at http://mozilla.org/MPL/2.0/. -->
<svg xmlns="http://www.w3.org/2000/svg" width="16" height="16" fill="context-fill" fill-opacity="context-fill-opacity" viewBox="0 0 16 16">
    <g clip-path="url(#clip0_18970_1050)">
        <path d="M.22.22a.75.75 0 0 1 1.06 0l1.397 1.396.009-.008L5.078 4h-.017l5.06 5.06.01-.006 1.06 1.058-.01.008 4.6 4.6a.75.75 0 0 1-1.061 1.06l-4.784-4.784A3.02 3.02 0 0 0 8.75 13.4v1.85a.75.75 0 0 1-1.5 0V13.4c0-1.358.627-2.59 1.636-3.454L4.75 5.81v.141h-1.5v-1.64L2.94 4H1.5a.5.5 0 0 1-.354-.853l.47-.47L.22 1.28a.75.75 0 0 1 0-1.06" />
        <path d="M4.8 7.27A2.958 2.958 0 0 0 6.35 9.4c.22.12.42.25.59.381.03.02.03.05.01.07l-.84 1.118c-.01.01-.02.022-.03.022h-.01c-.01 0-.02 0-.03-.01a2.6 2.6 0 0 0-.39-.25 4.6 4.6 0 0 1-1.31-1.05 4.53 4.53 0 0 1-1.03-2.202l1.483-.258zM11.648.648a.5.5 0 0 1 .706 0l2.499 2.5A.5.5 0 0 1 14.5 4h-1.75v2.734a4.4 4.4 0 0 1-.738 2.43l-1.095-1.095c.204-.41.333-.86.333-1.336V4H9.501a.5.5 0 0 1-.353-.853zM3.646.647a.5.5 0 0 1 .707 0l2.499 2.5a.496.496 0 0 1-.087.77L3.57.724z" />
    </g>
</svg>
